img/close.svg

<svg width="18" height="18" viewBox="0 0 18 18" fill="none" xmlns="http://www.w3.org/2000/svg">
<path fill-rule="evenodd" clip-rule="evenodd" d="M15.5751 15.7704C16.0345 15.3053 16.0382 14.5549 15.5834 14.0944L10.5641 9.0124L15.4099 4.10605C15.8647 3.64557 15.861 2.89522 15.4016 2.43007C14.9422 1.96492 14.2011 1.96117 13.7463 2.42165L8.90056 7.32799L4.0547 2.42153C3.59991 1.96105 2.85882 1.9648 2.39942 2.42995C1.94002 2.8951 1.93631 3.64545 2.3911 4.10593L7.23696 9.0124L2.21758 14.0946C1.76279 14.555 1.7665 15.3054 2.2259 15.7705C2.6853 16.2357 3.42639 16.2394 3.88118 15.779L8.90056 10.6968L13.9198 15.7788C14.3746 16.2393 15.1157 16.2356 15.5751 15.7704Z" fill="#222222" fill-opacity="0.3"/>
</svg>

<svg width="18" height="18" viewBox="0 0 18 18" fill="none" xmlns="http://www.w3.org/2000/svg"><path fill-rule="evenodd" clip-rule="evenodd" d="M15.575 15.77c.46-.465.463-1.215.008-1.676l-5.019-5.082 4.846-4.906c.455-.46.451-1.21-.008-1.676a1.16 1.16 0 0 0-1.656-.008L8.901 7.328 4.055 2.422a1.16 1.16 0 0 0-1.656.008 1.196 1.196 0 0 0-.008 1.676l4.846 4.906-5.02 5.083c-.454.46-.45 1.21.009 1.675.46.466 1.2.47 1.655.009l5.02-5.082 5.019 5.082a1.16 1.16 0 0 0 1.655-.009z" fill="#222" fill-opacity=".3"/></svg>
